X:144
T:Cobler Coch o Hengoed - The Red Cobbler of Hengoed
M:4/4
L:1/8
Q:200
C:Trad.
R:Processional
K:D
FE | D2 D2 DE F2 | G2 E4 A2 | D2 EG F2 E
2 | D6 :|| G2 | G2 G2 G2 GA | GF E4 A
2 | GB AG FE D2 | E6 FE | D2 D2 DE F2
| G2 E4 A2 | D2 EG F2 E2 | D6 ||
